pieces/chess7/qw.svg

<svg width="68" height="68" viewBox="0 0 68 68" fill="none" xmlns="http://www.w3.org/2000/svg">
<path d="M19.104 48.048C17.2267 43.9947 15.392 39.9413 13.6 35.888C11.8507 31.792 10.1013 27.7387 8.35199 23.728C7.41333 23.984 6.64533 23.792 6.04799 23.152L4.63999 21.616C3.35999 20.5067 3.35999 19.312 4.63999 18.032L6.04799 16.688C7.15733 15.3227 8.33066 15.3227 9.56799 16.688L11.104 18.032C12.128 19.312 12.128 20.5067 11.104 21.616L10.336 22.384L21.28 30.96L20.32 17.136C19.7653 17.008 19.296 16.752 18.912 16.368L17.568 14.96C16.2453 13.7653 16.2453 12.592 17.568 11.44L18.912 9.904C20.1067 8.79467 21.3013 8.79467 22.496 9.904L24.032 11.44C25.056 12.592 25.056 13.7653 24.032 14.96L22.496 16.368L29.088 27.632L32.608 14.704C32.736 14.704 32.544 14.5973 32.032 14.384L30.624 12.848C29.472 11.6533 29.472 10.4587 30.624 9.264L32.032 7.728C33.184 6.78933 34.3573 6.78933 35.552 7.728L36.96 9.264C38.2827 10.4587 38.2827 11.6533 36.96 12.848L35.552 14.384C35.3387 14.5973 35.1253 14.704 34.912 14.704L38.496 27.76L45.088 16.688L43.552 15.152C42.528 13.9147 42.528 12.6773 43.552 11.44L44.96 10.032C46.1973 9.008 47.4133 9.008 48.608 10.032L50.016 11.44C51.2533 12.6773 51.2533 13.9147 50.016 15.152L48.608 16.496L47.392 17.264L46.624 30.832L57.888 20.848L56.928 20.08C55.904 18.8427 55.904 17.6053 56.928 16.368L58.464 14.96C59.6587 13.8507 60.8533 13.8507 62.048 14.96L63.392 16.368C64.6293 17.6053 64.6293 18.8427 63.392 20.08L62.048 21.424C61.3227 22.1493 60.5333 22.4053 59.68 22.192L48.48 48.496L51.552 60.976H14.624L19.104 48.048Z" fill="black"/>
<path fill-rule="evenodd" clip-rule="evenodd" d="M19.748 55.859C19.748 55.794 20.046 54.777 20.411 53.599L21.074 51.455L22.048 52.296L23.022 53.137L21.522 54.547C20.113 55.871 19.748 56.141 19.748 55.859ZM22.817 57.84C23.3497 57.1495 23.8945 56.4684 24.451 55.797L25.719 54.254L27.052 53.959L28.384 53.665L30.673 55.911C32.775 57.975 33.016 58.157 33.639 58.157C34.617 58.157 34.893 57.969 37.112 55.787L39.112 53.819L40.224 54.033C41.324 54.246 41.352 54.267 42.476 55.703C43.103 56.503 43.866 57.423 44.172 57.748L44.728 58.339H22.45L22.817 57.84Z" fill="white"/>
<path fill-rule="evenodd" clip-rule="evenodd" d="M32.233 53.465L30.626 51.847L32.195 50.411C33.057 49.621 33.851 48.976 33.959 48.976C34.067 48.976 34.766 49.646 35.513 50.467L36.87 51.959L35.355 53.521L33.839 55.084L32.233 53.465ZM45.512 54.553L44.094 53.339L45.052 52.486C45.579 52.016 46.054 51.675 46.107 51.727C46.258 51.878 47.159 55.795 47.038 55.781C46.978 55.773 46.292 55.221 45.512 54.553V54.553ZM40.69 50.921C39.573 50.641 39.49 50.578 37.556 48.511C36.463 47.342 35.302 46.255 34.976 46.094L34.384 45.802L34.93 45.804C35.905 45.808 38.175 46.29 39.384 46.749C40.374 47.126 43.87 48.789 44.087 48.987C44.2 49.091 42.214 51.241 42.021 51.224C41.921 51.214 41.322 51.079 40.691 50.921H40.69ZM24.213 50.17C23.619 49.568 23.169 49.043 23.213 49.004C23.41 48.826 24.604 48.279 26.426 47.534C28.469 46.696 30.63 46.085 32.203 45.9L33.112 45.792L32.566 46.128C32.266 46.314 31.146 47.404 30.076 48.553C28.196 50.572 28.098 50.648 27.076 50.869C26.496 50.995 25.857 51.135 25.657 51.181C25.394 51.241 24.993 50.96 24.213 50.17V50.17Z" fill="white"/>
<path fill-rule="evenodd" clip-rule="evenodd" d="M44.02 45.334C39.597 43.182 35.935 42.427 32.035 42.866C29.475 43.154 27.84 43.604 24.431 44.956L21.57 46.09L21.021 44.917C20.618 44.055 20.524 43.682 20.667 43.509C20.977 43.137 23.708 41.852 25.257 41.352C28.987 40.146 33.777 39.703 37.359 40.233C40.054 40.632 41.849 41.207 44.795 42.616C47.081 43.71 47.195 43.79 47.039 44.19C46.687 45.091 46.123 46.338 46.074 46.322C46.045 46.314 45.122 45.869 44.022 45.333L44.02 45.334Z" fill="white"/>
<path fill-rule="evenodd" clip-rule="evenodd" d="M46.203 39.811C43.9899 38.6722 41.6363 37.8303 39.203 37.307C36.998 36.835 30.341 36.831 28.112 37.301C25.663 37.818 23.085 38.667 21.037 39.631C19.996 40.122 19.117 40.497 19.086 40.465C18.958 40.338 14.299 29.728 14.348 29.679C14.378 29.649 16.382 30.945 18.803 32.557C21.223 34.169 23.245 35.449 23.293 35.4C23.343 35.351 23.494 33.044 23.632 30.274C23.77 27.504 23.917 25.2 23.962 25.156C24.006 25.112 25.256 26.748 26.74 28.792C28.224 30.837 29.495 32.474 29.565 32.431C29.635 32.388 30.625 30.065 31.765 27.268C32.905 24.472 33.891 22.28 33.955 22.398C34.018 22.516 34.833 24.842 35.767 27.568C36.701 30.294 37.52 32.503 37.587 32.478C37.655 32.451 39.029 30.794 40.641 28.794C42.253 26.794 43.637 25.136 43.714 25.109C43.792 25.083 43.986 27.358 44.145 30.165C44.305 32.972 44.481 35.315 44.538 35.371C44.594 35.428 46.582 34.034 48.955 32.274C51.328 30.514 53.305 29.109 53.348 29.152C53.444 29.247 48.422 40.88 48.293 40.86C48.243 40.852 47.303 40.38 46.203 39.811V39.811ZM7.32701 20.375L6.83701 19.863L7.34901 19.373L7.86001 18.883L8.35001 19.395L8.84001 19.906L8.32901 20.396L7.81701 20.886L7.32701 20.375ZM20.236 13.648L19.746 13.136L20.258 12.646L20.769 12.156L21.259 12.667L21.749 13.179L21.238 13.669L20.727 14.159L20.236 13.648ZM33.324 11.643L32.837 11.136L33.35 10.645L33.863 10.154L34.275 10.593C34.602 10.941 34.649 11.105 34.501 11.383C34.103 12.126 33.841 12.183 33.324 11.643V11.643ZM46.327 13.92C45.827 13.387 45.829 13.224 46.351 12.735C46.881 12.236 46.876 12.235 47.339 12.862L47.725 13.384L47.225 13.864L46.725 14.344L46.327 13.92ZM59.691 18.738L59.201 18.227L59.712 17.737L60.224 17.247L60.714 17.758L61.204 18.27L60.693 18.76L60.181 19.25L59.691 18.738Z" fill="white"/>
</svg>

<svg height="68" width="68" xmlns="http://www.w3.org/2000/svg"><path d="m21.088 51.312-1.664 5.184 3.648-3.328zm25.088.128-2.176 1.856 3.264 2.752zm-17.728 2.176-2.752.576-3.392 4.16h22.464q-.704-.64-3.392-4.16l-2.304-.448-3.52 3.52q-1.792 1.792-3.52 0zm-9.344-5.568q-2.816-6.08-5.504-12.16-2.624-6.144-5.248-12.16-1.408.384-2.304-.576l-1.408-1.536q-1.92-1.664 0-3.584l1.408-1.344q1.664-2.048 3.52 0l1.536 1.344q1.536 1.92 0 3.584l-.768.768 10.944 8.576-.96-13.824q-.832-.192-1.408-.768l-1.344-1.408q-1.984-1.792 0-3.52l1.344-1.536q1.792-1.664 3.584 0l1.536 1.536q1.536 1.728 0 3.52l-1.536 1.408 6.592 11.264 3.52-12.928q.192 0-.576-.32l-1.408-1.536q-1.728-1.792 0-3.584l1.408-1.536q1.728-1.408 3.52 0l1.408 1.536q1.984 1.792 0 3.584l-1.408 1.536q-.32.32-.64.32l3.584 13.056 6.592-11.072-1.536-1.536q-1.536-1.856 0-3.712l1.408-1.408q1.856-1.536 3.648 0l1.408 1.408q1.856 1.856 0 3.712l-1.408 1.344-1.216.768-.768 13.568 11.264-9.984-.96-.768q-1.536-1.856 0-3.712l1.536-1.408q1.792-1.664 3.584 0l1.344 1.408q1.856 1.856 0 3.712l-1.344 1.344q-1.088 1.088-2.368.768l-11.2 26.304 3.072 12.48h-36.928zm0-7.36q6.592-3.84 14.912-3.84 7.552 0 14.336 4.16l5.376-12.352-9.216 6.848-.64-10.816-6.336 7.872-3.648-10.624-4.352 10.624-5.696-7.872-.512 10.816-9.28-6.208zm14.784 8-3.264 3.2 3.264 3.264 3.072-3.264zm-13.568-5.056q.32.704.64 1.344.384.64.576 1.216 2.688-1.216 5.824-2.304 3.2-1.088 6.656-1.088 3.328 0 5.824.832t6.336 2.752l1.088-2.624q-3.456-1.92-6.528-2.88-3.072-.96-6.72-.96-3.584 0-7.296.96-3.648.896-6.4 2.752zm-12.48-24.832-1.024 1.088 1.024 1.088 1.088-1.088zm12.928-6.72-1.088 1.088 1.088 1.024 1.088-1.024zm13.12-2.048-1.088 1.088 1.088 1.088.896-1.088zm12.928 2.176-1.088 1.088 1.088 1.088 1.024-1.088zm13.376 4.928-1.088 1.088 1.088 1.088 1.088-1.088zm-15.872 31.872q-3.008-1.6-5.184-2.432-2.112-.832-5.12-.832t-5.888 1.088q-2.88 1.024-5.184 2.176l2.304 2.304 2.944-.64 3.84-4.16q1.728-1.408 3.52 0l4.032 4.16 2.56.64z"/><g fill="#fff" fill-rule="evenodd"><path d="m19.748 55.859c0-.065.298-1.082.663-2.26l.663-2.144.974.841.974.841-1.5 1.41c-1.409 1.324-1.774 1.594-1.774 1.312zm3.069 1.981a74.71 74.71 0 0 1 1.634-2.043l1.268-1.543 1.333-.295 1.332-.294 2.289 2.246c2.102 2.064 2.343 2.246 2.966 2.246.978 0 1.254-.188 3.473-2.37l2-1.968 1.112.214c1.1.213 1.128.234 2.252 1.67.627.8 1.39 1.72 1.696 2.045l.556.591h-22.278z"/><path d="m32.233 53.465-1.607-1.618 1.569-1.436c.862-.79 1.656-1.435 1.764-1.435s.807.67 1.554 1.491l1.357 1.492-1.515 1.562-1.516 1.563zm13.279 1.088-1.418-1.214.958-.853c.527-.47 1.002-.811 1.055-.759.151.151 1.052 4.068.931 4.054-.06-.008-.746-.56-1.526-1.228zm-4.822-3.632c-1.117-.28-1.2-.343-3.134-2.41-1.093-1.169-2.254-2.256-2.58-2.417l-.592-.292.546.002c.975.004 3.245.486 4.454.945.99.377 4.486 2.04 4.703 2.238.113.104-1.873 2.254-2.066 2.237-.1-.01-.699-.145-1.33-.303zm-16.477-.751c-.594-.602-1.044-1.127-1-1.166.197-.178 1.391-.725 3.213-1.47 2.043-.838 4.204-1.449 5.777-1.634l.909-.108-.546.336c-.3.186-1.42 1.276-2.49 2.425-1.88 2.019-1.978 2.095-3 2.316-.58.126-1.219.266-1.419.312-.263.06-.664-.221-1.444-1.011z"/><path d="m44.02 45.334c-4.423-2.152-8.085-2.907-11.985-2.468-2.56.288-4.195.738-7.604 2.09l-2.861 1.134-.549-1.173c-.403-.862-.497-1.235-.354-1.408.31-.372 3.041-1.657 4.59-2.157 3.73-1.206 8.52-1.649 12.102-1.119 2.695.399 4.49.974 7.436 2.383 2.286 1.094 2.4 1.174 2.244 1.574-.352.901-.916 2.148-.965 2.132-.029-.008-.952-.453-2.052-.989z"/><path d="m46.203 39.811a28.308 28.308 0 0 0 -7-2.504c-2.205-.472-8.862-.476-11.091-.006-2.449.517-5.027 1.366-7.075 2.33-1.041.491-1.92.866-1.951.834-.128-.127-4.787-10.737-4.738-10.786.03-.03 2.034 1.266 4.455 2.878 2.42 1.612 4.442 2.892 4.49 2.843.05-.049.201-2.356.339-5.126s.285-5.074.33-5.118c.044-.044 1.294 1.592 2.778 3.636 1.484 2.045 2.755 3.682 2.825 3.639s1.06-2.366 2.2-5.163c1.14-2.796 2.126-4.988 2.19-4.87.063.118.878 2.444 1.812 5.17s1.753 4.935 1.82 4.91c.068-.027 1.442-1.684 3.054-3.684s2.996-3.658 3.073-3.685c.078-.026.272 2.249.431 5.056.16 2.807.336 5.15.393 5.206.056.057 2.044-1.337 4.417-3.097s4.35-3.165 4.393-3.122c.096.095-4.926 11.728-5.055 11.708-.05-.008-.99-.48-2.09-1.049zm-38.876-19.436-.49-.512.512-.49.511-.49.49.512.49.511-.511.49-.512.49zm12.909-6.727-.49-.512.512-.49.511-.49.49.511.49.512-.511.49-.511.49zm13.088-2.005-.487-.507.513-.491.513-.491.412.439c.327.348.374.512.226.79-.398.743-.66.8-1.177.26zm13.003 2.277c-.5-.533-.498-.696.024-1.185.53-.499.525-.5.988.127l.386.522-.5.48-.5.48zm13.364 4.818-.49-.511.511-.49.512-.49.49.511.49.512-.511.49-.512.49z"/></g></svg>
